src/22/panel/pcloud-warning.svg

<svg xmlns="http://www.w3.org/2000/svg" width="22" height="22"><defs><style id="current-color-scheme" type="text/css">.ColorScheme-Text{color:#dfdfdf;}.ColorScheme-Highlight{color:#5294e2;}</style></defs><defs><style id="current-color-scheme" type="text/css"></style></defs><path d="M11.5 4a6.5 6.5 0 0 0-6.01 4.031A5 5 0 0 0 1 13a5 5 0 0 0 5 5h11.75A3.25 3.25 0 0 0 21 14.75a3.237 3.237 0 0 0-1.691-2.836A3 3 0 0 0 20 10a3 3 0 0 0-3-3 3 3 0 0 0-.023 0A6.5 6.5 0 0 0 11.5 4zm0 2a4.5 4.5 0 0 1 4.5 4.5 4.5 4.5 0 0 1-4.5 4.5A4.5 4.5 0 0 1 7 10.5 4.5 4.5 0 0 1 11.5 6zm0 1A3.5 3.5 0 0 0 8 10.5a3.5 3.5 0 0 0 3.5 3.5 3.5 3.5 0 0 0 3.5-3.5A3.5 3.5 0 0 0 11.5 7zM10 8h2.5A1.5 1.5 0 0 1 14 9.5a1.5 1.5 0 0 1-1.5 1.5H11v2h-1v-2zm1 1v1h1.5a.5.5 0 0 0 .5-.5.5.5 0 0 0-.5-.5z" fill="currentColor" class="ColorScheme-Highlight"/></svg>

<svg xmlns="http://www.w3.org/2000/svg" width="22" height="22" version="1.1">
 <defs>
  <style id="current-color-scheme" type="text/css">
   .ColorScheme-Text { color:#dfdfdf; } .ColorScheme-Highlight { color:#4285f4; }
  </style>
 </defs>
 <path style="fill:currentColor" class="ColorScheme-Highlight" d="M 11.5,3.9999999 A 6.5,6.5 0 0 0 5.490234,8.0312499 5,5 0 0 0 1,13 5,5 0 0 0 6,18 H 17.75 C 19.544925,18 21,16.544925 21,14.75 21,13.523022 20.312228,12.467196 19.308594,11.914062 A 3,3 0 0 0 20,9.9999999 a 3,3 0 0 0 -3,-3 3,3 0 0 0 -0.02344,0 6.5,6.5 0 0 0 -5.476562,-3 z m 0,2 A 4.5,4.5 0 0 1 16,10.5 4.5,4.5 0 0 1 11.5,15 4.5,4.5 0 0 1 7,10.5 4.5,4.5 0 0 1 11.5,5.9999999 Z m 0,1 A 3.5,3.5 0 0 0 8,10.5 3.5,3.5 0 0 0 11.5,14 3.5,3.5 0 0 0 15,10.5 3.5,3.5 0 0 0 11.5,6.9999999 Z m -1.5,1 h 1 1.5 a 1.5,1.5 0 0 1 1.5,1.5 A 1.5,1.5 0 0 1 12.5,11 H 11 v 2 h -1 v -2 z m 1,1 v 1 h 1.5 a 0.5,0.5 0 0 0 0.5,-0.5 0.5,0.5 0 0 0 -0.5,-0.5 z"/>
</svg>
